Obsidian-SemiLight/actions/22s/text-wrap.svg

<svg viewBox="0 0 22 22" xmlns="http://www.w3.org/2000/svg"><path d="m3 3v1h16v-1zm0 2v1h9v-1zm0 4v1h10v-1zm0 2v1h4v-1zm0 4v1h10v-1zm0 2v1h7v-1zm8 1v1h2v-1z" fill="#4d4d4d"/><path d="m11 12v1h4 .5c1.385 0 2.5 1.115 2.5 2.5 0 .8187-.395507 1.535134-1 1.990234v-1.490234h-1v1.949219.050781.951172.048828h1 2v-1h-1.076172c.65797-.6319 1.076172-1.5097 1.076172-2.5 0-1.939-1.561-3.5-3.5-3.5z" fill="#3daee9"/></svg>

<svg xmlns="http://www.w3.org/2000/svg" viewBox="0 0 22 22">
  <defs id="defs3051">
    <style type="text/css" id="current-color-scheme">
      .ColorScheme-Text {
        color:#4d4d4d;
      }
      .ColorScheme-Highlight {
        color:#3daee9;
      }
      </style>
  </defs>
 <path 
     style="fill:currentColor;fill-opacity:1;stroke:none" 
     d="M 3 3 L 3 4 L 19 4 L 19 3 L 3 3 z M 3 5 L 3 6 L 12 6 L 12 5 L 3 5 z M 3 9 L 3 10 L 13 10 L 13 9 L 3 9 z M 3 11 L 3 12 L 7 12 L 7 11 L 3 11 z M 3 15 L 3 16 L 13 16 L 13 15 L 3 15 z M 3 17 L 3 18 L 10 18 L 10 17 L 3 17 z M 11 18 L 11 19 L 13 19 L 13 18 L 11 18 z "
     class="ColorScheme-Text"
     />
 <path 
     style="fill:currentColor;fill-opacity:1;stroke:none" 
     d="M 11 12 L 11 13 L 15 13 L 15.5 13 C 16.885 13 18 14.115 18 15.5 C 18 16.3187 17.604493 17.035134 17 17.490234 L 17 16 L 16 16 L 16 17.949219 L 16 18 L 16 18.951172 L 16 19 L 17 19 L 19 19 L 19 18 L 17.923828 18 C 18.581798 17.3681 19 16.4903 19 15.5 C 19 13.561 17.439 12 15.5 12 L 11 12 z "
     class="ColorScheme-Highlight"
     />
</svg>
